X:1
T:Holy Ghost, 7.7.7
T:Melody adapted by Johann Crüger, 1640
T:Holy Ghost, 7.7.7
T:Public Domain
C:Melody adapted by Johann Cr&#252;ger, 1640
Z:Public Domain
%%score ( 1 2 ) ( 3 4 )
L:1/8
M:3/4
K:G
V:1 treble 
V:2 treble 
V:3 bass 
V:4 bass 
V:1
 [B,E]4 [EG]2 | F4 [E^G]2 | [EA]4 [EG]2 | E4 ^D2 | [EG]4 [EA]2 | E2 D2 [Gc]2 | [GB]4 [FA]2 | G6 | %8
 [FB]4 [EG]2 | [CF]4 [A,E]2 | [B,E]4 [B,^D]2 | [B,E]6 |] %12
V:2
 x6 | F4 x2 | x6 | F6 | x6 | B4 x2 | x6 | G6 | x6 | x6 | x6 | x6 |] %12
V:3
 [E,G,]4 [E,B,]2 | [^D,B,]4 [=D,B,]2 | [C,A,]4 [A,,C]2 | [B,,F,]6 | E,2 B,2 [F,A,]2 | %5
 G,2 B,2 [A,,E]2 | B,,3 C, [D,D]2 | [G,B,]6 | [^D,B,]4 [E,B,]2 | A,,3 B,, [C,E,]2 | %10
 F,3 G, [B,,A,]2 | [E,G,]6 |] %12
V:4
 x6 | x6 | x6 | x6 | E,4 x2 | G,4 x2 | B,4 x2 | x6 | x6 | A,4 x2 | B,,4 x2 | x6 |] %12

